Themes/OneUI/assets/svg/sec_ic_settings_software_update.svg

<?xml version="1.0" encoding="UTF-8" standalone="no"?>
<svg
   width="28.000021"
   height="28.000021"
   viewBox="0 0 28.000021 28.000021"
   fill="none"
   version="1.1"
   id="svg2186"
   sodipodi:docname="sec_ic_settings_software_update.svg"
   xmlns:inkscape="http://www.inkscape.org/namespaces/inkscape"
   xmlns:sodipodi="http://sodipodi.sourceforge.net/DTD/sodipodi-0.dtd"
   xmlns="http://www.w3.org/2000/svg"
   xmlns:svg="http://www.w3.org/2000/svg">
  <sodipodi:namedview
     id="namedview2188"
     pagecolor="#ffffff"
     bordercolor="#666666"
     borderopacity="1.0"
     inkscape:showpageshadow="2"
     inkscape:pageopacity="0.0"
     inkscape:pagecheckerboard="0"
     inkscape:deskcolor="#d1d1d1" />
  <g
     clip-path="url(#clip0_1_1355)"
     id="g2179">
    <path
       d="M 24.856,3.14401 C 23.13,1.52161 20.7739,0.601214 18.1738,0.256914 15.6907,-0.072186 14,0.00881404 14,0.00881404 c 0,0 -1.691,-0.08100004 -4.17421,0.24809996 -2.6,0.3443 -4.956,1.264696 -6.6815,2.887096 -1.6228,1.7258 -2.543099,4.0819 -2.887599,6.6819 -0.3291004,2.48299 -0.2478004,4.17399 -0.2478004,4.17399 0,0 -0.0813,1.6908 0.2478004,4.174 0.3445,2.5998 1.264799,4.9561 2.887399,6.6819 1.7257,1.6226 4.0817,2.5428 6.6817,2.8875 C 12.309,28.0722 14,27.9912 14,27.9912 c 0,0 1.6907,0.081 4.1738,-0.2479 2.6001,-0.3447 4.9562,-1.2649 6.6818,-2.8875 1.623,-1.7258 2.5432,-4.0821 2.8877,-6.6819 0.3289,-2.4832 0.2479,-4.174 0.2479,-4.174 0,0 0.081,-1.691 -0.2479,-4.17399 -0.3445,-2.6 -1.2647,-4.9561 -2.8873,-6.6819 z"
       fill="#818afe"
       id="path2175" />
    <path
       d="m 16.6473,11.4215 c 1.4685,1.4685 1.4685,3.8574 0,5.3258 -0.7342,0.7343 -1.6986,1.101 -2.6629,1.101 -0.9643,0 -1.9287,-0.3667 -2.6629,-1.101 -1.4685,-1.4684 -1.4685,-3.8573 0,-5.3258 0.2686,-0.2676 0.704,-0.2676 0.9726,0 0.2686,0.2686 0.2686,0.704 0,0.9726 -0.9323,0.9323 -0.9323,2.4484 0,3.3816 0.9322,0.9313 2.4484,0.9313 3.3807,0 0.9322,-0.9332 0.9322,-2.4493 0,-3.3816 l -0.2952,-0.2952 v 0.8984 c 0,0.3804 -0.308,0.6875 -0.6875,0.6875 -0.3795,0 -0.6875,-0.3071 -0.6875,-0.6875 v -1.9644 c 0,-0.6179 0.5032,-1.1211 1.1211,-1.1211 h 1.9681 c 0.3795,0 0.6875,0.308 0.6875,0.6875 0,0.3795 -0.308,0.6875 -0.6875,0.6875 H 16.5126 Z M 9.7989,6.323 c -1.287,0 -2.3301,0.9964 -2.3301,2.2248 v 10.9056 c 0,1.2283 1.0431,2.2238 2.3301,2.2238 h 8.4022 c 1.287,0 2.3302,-0.9955 2.3302,-2.2238 V 8.5478 c 0,-1.2284 -1.0432,-2.2248 -2.3302,-2.2248 z"
       fill="#ffffff"
       id="path2177" />
  </g>
  <defs
     id="defs2184">
    <clipPath
       id="clip0_1_1355">
      <rect
         width="28"
         height="28"
         fill="#ffffff"
         id="rect2181"
         x="0"
         y="0" />
    </clipPath>
  </defs>
</svg>

<svg width="28" height="28" viewBox="0 0 28 28" fill="none" xmlns="http://www.w3.org/2000/svg">
<g clip-path="url(#clip0_1_1355)">
<path d="M24.856 3.14401C23.13 1.52161 20.7739 0.601214 18.1738 0.256914C15.6907 -0.072186 14 0.00881404 14 0.00881404C14 0.00881404 12.309 -0.072186 9.82579 0.256914C7.22579 0.601214 4.86979 1.52161 3.14429 3.14401C1.52149 4.86981 0.601191 7.22591 0.256691 9.82591C-0.0724094 12.3089 0.0088906 13.9999 0.0088906 13.9999C0.0088906 13.9999 -0.0724094 15.6907 0.256691 18.1739C0.601191 20.7737 1.52149 23.13 3.14409 24.8558C4.86979 26.4784 7.22579 27.3986 9.82579 27.7433C12.309 28.0722 14 27.9912 14 27.9912C14 27.9912 15.6907 28.0722 18.1738 27.7433C20.7739 27.3986 23.13 26.4784 24.8556 24.8558C26.4786 23.13 27.3988 20.7737 27.7433 18.1739C28.0722 15.6907 27.9912 13.9999 27.9912 13.9999C27.9912 13.9999 28.0722 12.3089 27.7433 9.82591C27.3988 7.22591 26.4786 4.86981 24.856 3.14401Z" fill="#818AFE"/>
<path d="M16.6473 11.4215C18.1158 12.89 18.1158 15.2789 16.6473 16.7473C15.9131 17.4816 14.9487 17.8483 13.9844 17.8483C13.0201 17.8483 12.0557 17.4816 11.3215 16.7473C9.853 15.2789 9.853 12.89 11.3215 11.4215C11.5901 11.1539 12.0255 11.1539 12.2941 11.4215C12.5627 11.6901 12.5627 12.1255 12.2941 12.3941C11.3618 13.3264 11.3618 14.8425 12.2941 15.7757C13.2263 16.707 14.7425 16.707 15.6748 15.7757C16.607 14.8425 16.607 13.3264 15.6748 12.3941L15.3796 12.0989V12.9973C15.3796 13.3777 15.0716 13.6848 14.6921 13.6848C14.3126 13.6848 14.0046 13.3777 14.0046 12.9973V11.0329C14.0046 10.415 14.5078 9.9118 15.1257 9.9118H17.0938C17.4733 9.9118 17.7813 10.2198 17.7813 10.5993C17.7813 10.9788 17.4733 11.2868 17.0938 11.2868H16.5126L16.6473 11.4215ZM9.7989 6.323C8.5119 6.323 7.4688 7.3194 7.4688 8.5478V19.4534C7.4688 20.6817 8.5119 21.6772 9.7989 21.6772H18.2011C19.4881 21.6772 20.5313 20.6817 20.5313 19.4534V8.5478C20.5313 7.3194 19.4881 6.323 18.2011 6.323H9.7989Z" fill="white"/>
</g>
<defs>
<clipPath id="clip0_1_1355">
<rect width="28" height="28" fill="white"/>
</clipPath>
</defs>
</svg>
